svg/file_chart_check.svg

<svg xmlns="http://www.w3.org/2000/svg" viewBox="0 0 24 24"><path d="m23.5 17-5 5-3.5-3.5 1.5-1.5 2 2 3.5-3.5zM6 2c-1.1 0-2 .9-2 2v16c0 1.1.9 2 2 2h7.8c-.5-.9-.8-1.9-.8-3v1h-2v-8h2v7c0-3.3 2.7-6 6-6 .3 0 .7 0 1 .1V8l-6-6zm7 1.5L18.5 9H13zM7 14h2v6H7z"/></svg>

<svg xmlns="http://www.w3.org/2000/svg" id="mdi-file-chart-check" viewBox="0 0 24 24"><path d="M23.5 17L18.5 22L15 18.5L16.5 17L18.5 19L22 15.5L23.5 17M6 2C4.9 2 4 2.9 4 4V20C4 21.1 4.9 22 6 22H13.8C13.3 21.1 13 20.1 13 19V20H11V12H13V19C13 15.7 15.7 13 19 13C19.3 13 19.7 13 20 13.1V8L14 2H6M13 3.5L18.5 9H13V3.5M7 14H9V20H7V14Z" /></svg>
